!!!COM: Mozart	
!!!OTL: 12 Variations on "Ah Vous dirais-je, Maman" for the Piano,	
!!!Variation: Theme a	
!!!COM: Mozart
!!!OTL: 12 Variations on "Ah Vous dirais-je, Maman" for the Piano,
!!!Variation: Theme a
**kern	**harm	**kern	**kern
*	*	*Ilh	*Irh
*	*	*clefF4	*clefG2
*	*	*k[]	*k[]
*M4/4	*M4/4	*M2/4	*M2/4
*C:	*C:	*C:	*C:
=-	=-	=-	=-
4T	4I	4C	4cc
4T	4I	4c	4cc
=	=	=	=
4T	4I6	4e	4gg
4T	4I6	4c	4gg
=	=	=	=
4T	4IV	4f	4aa
4T	4IV	4c	4aa
=	=	=	=
4T	4I6	4e	4gg
4T	4I6	4c	4gg
=	=	=	=
4T	4ii	4d	4ff
4T	4viio	4B	4ff
=	=	=	=
4T	4I	4c	4ee
4T	4vi	4A	4ee
=	=	=	=
4P	4ii6	4F	4dd
4D	4V	4G	(8.ddL
.	.	.	16eeJk
=	=	=	=
2T	2I	2C	2cc)
=	=	=	=
*-	*-	*-	*-
!!!COM: Mozart
!!!OTL: 12 Variations on "Ah Vous dirais-je, Maman" for the Piano,
!!!Variation: Theme b
**kern	**harm	**kern	**kern
*M2/4	*M2/4	*Ilh	*Irh
*	*	*k[]	*k[]
*	*	*M2/4	*M2/4
*	*	*C:	*C:
*	*	*tb16	*tb16
=-	=-	=-	=-
2D	2I64	4e	4gg
.	.	4G	4gg
=	=	=	=
2D	2V7	4d	4ff
.	.	4G	4ff
=	=	=	=
2D	2I64	4c	4ee
.	.	4G	4ee
=	=	=	=
2D	2V	4B	4dd
.	.	4G	4dd
=	=	=	=
2D	2I64	4e	4gg
.	.	4G	4gg
=	=	=	=
2D	2V	4d	4ff
.	.	4G	4ff
=	=	=	=
2T	2I	4c	(4ee
.	.	(8.cL	8.eeL
.	.	16dJk	16ffJk
=	=	=	=
*	*	*^	*
4D	4C64	4c	2G	4ee
4D	4V	4B)	.	4dd)
*	*	*v	*v	*
=	=	=	=
*-	*-	*-	*-
!!!COM: Mozart
!!!OTL: 12 Variations on "Ah Vous dirais-je, Maman" for the Piano,
!!!Variation: Theme c
!!!COM: Mozart	
!!!OTL: 12 Variations on "Ah Vous dirais-je, Maman" for the Piano,	
!!!Variation: Theme c	
**kern	**harm	**kern	**kern
*M2/4	*M2/4	*Ilh	*Irh
*	*	*k[]	*k[]
*	*	*M2/4	*M2/4
*	*	*C:	*C:
*	*	*tb16	*tb16
=-	=-	=-	=-
2T	2I	4C	4cc
.	.	4c	4cc
=	=	=	=
2T	2I6	4e	4gg
.	.	4c	4gg
=	=	=	=
2T	2IV	4f	4aa
.	.	4c	4aa
=	=	=	=
2T	2I6	4e	4gg
.	.	4c	4gg
=	=	=	=
4T	4ii	4d	4ff
4T	4viio	4B	4ff
=	=	=	=
4T	4I	4c	4ee
4T	4vi	4A	4ee
=	=	=	=
4P	4ii6	4F	(4dd
4D	4V	4G	8.ddL
.	.	.	16eeJk
=	=	=	=
2T	2I	2C	2cc)
==	==	=	=
*-	*-	*-	*-
!!!COM: Mozart
!!!OTL: 12 Variations on "Ah Vous dirais-je, Maman" for the Piano,
!!!Variation: 1 a
**function	**harm	**kern	**kern
*M2/4	*M2/4	*M2/4	*M2/4
=-	=-	=-	=-
2T	2I	4C	16ddLL
.	.	.	16cc
.	.	.	16b
.	.	.	16ccJJ
.	.	4c	16bLL
.	.	.	16cc
.	.	.	16b
.	.	.	16ccJJ
=	=	=	=
2T	2I6	4e	16aaLL
.	.	.	16gg
.	.	.	16ff#
.	.	.	16ggJJ
.	.	4c	16ff#LL
.	.	.	16gg
.	.	.	16ff#
.	.	.	16ggJJ
=	=	=	=
2T	2IV	4f	16gg#LL
.	.	.	16aa
.	.	.	16ccc
.	.	.	16bbJJ
.	.	4c	16dddLL
.	.	.	16ccc
.	.	.	16bb
.	.	.	16aaJJ
=	=	=	=
2T	2I6	4e	16aaLL
.	.	.	16gg
.	.	.	16eee
.	.	.	16dddJJ
.	.	8.r	16cccLL
.	.	.	16bb
.	.	.	16aa
.	.	16c#	[16ggJJ
=	=	=	=
4T	4ii	4d	16ggLL]
.	.	.	16ff
.	.	.	16ddd
.	.	.	16cccJJ
4T	4viio	8.r	16bbLL
.	.	.	16aa
.	.	.	16gg
.	.	16B	[16ffJJ
=	=	=	=
4T	4I	4c	16ffLL]
.	.	.	16ee
.	.	.	16ccc
.	.	.	16bbJJ
4T	4vi	8.r	16aaLL
.	.	.	16gg
.	.	.	16ff
.	.	16A	16eeJJ
=	=	=	=
4P	4ii6	4F	8ddL
.	.	.	8aaJ
4D	4V	4G	8ggL
.	.	.	8bJ
=	=	=	=
2T	2I	4c	4cc
.	.	4C	4r
=	=	=	=
*-	*-	*-	*-
!!!COM: Mozart	
!!!OTL: 12 Variations on "Ah Vous dirais-je, Maman" for the Piano,	
!!!Variation: 1 b	
!!!COM: Mozart
!!!OTL: 12 Variations on "Ah Vous dirais-je, Maman" for the Piano,
!!!Variation: 1 b
**function	**harm	**kern	**kern
*M2/4	*M2/4	*M2/4	*M2/4
=-	=-	=-	=-
2D	2I64	4e	16aaLL
.	.	.	16gg
.	.	.	16ff#
.	.	.	16ggJJ
.	.	4G	16ff#LL
.	.	.	16gg
.	.	.	16aa
.	.	.	16ggJJ
=	=	=	=
2D	2V7	4d	16ggLL
.	.	.	16ff
.	.	.	16ee
.	.	.	16ffJJ
.	.	4G	16eeLL
.	.	.	16ff
.	.	.	16gg
.	.	.	16ffJJ
=	=	=	=
2D	2I64	4c	16ffLL
.	.	.	16ee
.	.	.	16dd#
.	.	.	16eeJJ
.	.	4G	16dd#LL
.	.	.	16ee
.	.	.	16ff
.	.	.	16eeJJ
=	=	=	=
2D	2V	4f	16eeLL
.	.	.	16dd
.	.	.	16cc#
.	.	.	16ddJJ
.	.	4G	16cc#LL
.	.	.	16dd
.	.	.	16ee
.	.	.	16ddJJ
=	=	=	=
2D	2I64	2G 2e	16aaLL
.	.	.	16gg
.	.	.	16ff#
.	.	.	16ggJJ
.	.	.	16eeeLL
.	.	.	16ccc
.	.	.	16aa
.	.	.	16ggJJ
=	=	=	=
2D	2V7	2G 2d	16ggLL
.	.	.	16ff
.	.	.	16ee
.	.	.	16ffJJ
.	.	.	16dddLL
.	.	.	16bb
.	.	.	16gg
.	.	.	16ffJJ
=	=	=	=
2D	2I64	4G 4c	16ffLL
.	.	.	16ee
.	.	.	16dd#
.	.	.	16eeJJ
.	.	8.r	16cccLL
.	.	.	16gg
.	.	.	16ff
.	.	16c	16eeJJ
=	=	=	=
*	*	*^	*
*	*	*	*	*
4D	4C64	(8.eL	2G	(8.ggL
.	.	16cJk	.	16eeJk
4D	4V	4B)	.	4dd)
*	*	*v	*v	*
=	=	=	=
*-	*-	*-	*-
!!!COM: Mozart	
!!!OTL: 12 Variations on "Ah Vous dirais-je, Maman" for the Piano,	
!!!Variation: 1 c
!!!COM: Mozart
!!!OTL: 12 Variations on "Ah Vous dirais-je, Maman" for the Piano,
!!!Variation: 2 a
**function	**harm	**kern	**kern
*M2/4	*M2/4	*M2/4	*M2/4
=-	=-	=-	=-
2T	2I	4C	16ddLL
.	.	.	16cc
.	.	.	16b
.	.	.	16ccJJ
.	.	4c	16bLL
.	.	.	16cc
.	.	.	16b
.	.	.	16ccJJ
=	=	=	=
2T	2I6	4e	16aaLL
.	.	.	16gg
.	.	.	16ff#
.	.	.	16ggJJ
.	.	4c	16ff#LL
.	.	.	16gg
.	.	.	16ff#
.	.	.	16ggJJ
=	=	=	=
2T	2IV	4f	16gg#LL
.	.	.	16aa
.	.	.	16ccc
.	.	.	16bbJJ
.	.	4c	16dddLL
.	.	.	16ccc
.	.	.	16bb
.	.	.	16aaJJ
=	=	=	=
2T	2I	4e	16aaLL
.	.	.	16gg
.	.	.	16eee
.	.	.	16dddJJ
.	.	8.r	16cccLL
.	.	.	16bb
.	.	.	16aa
.	.	16c#	[16ggJJ
=	=	=	=
4T	4IV65	4d	16ggLL]
.	.	.	16ff
.	.	.	16ddd
.	.	.	16cccJJ
4T	4V65	8.r	16bbLL
.	.	.	16aa
.	.	.	16gg
.	.	16B	[16ffJJ
=	=	=	=
4T	4I	4c	16ffLL]
.	.	.	16ee
.	.	.	16ccc
.	.	.	16bbJJ
4T	4vi	8.r	16aaLL
.	.	.	16gg
.	.	.	16ff
.	.	16A	16eeJJ
=	=	=	=
4P	4ii6	4F	8ddL
.	.	.	8aaJ
4D	4V	4G	8ggL
.	.	.	8bJ
=	=	=	=
2T	2I	4c	4cc
.	.	4C	4r
==	==	=	=
*-	*-	*-	*-
!!!COM: Mozart
!!!OTL: 12 Variations on "Ah Vous dirais-je, Maman" for the Piano,
!!!Variation: 2 a
**function	**harm	**kern	**kern
*M2/4	*M2/4	*M2/4	*M2/4
=-	=-	=-	=-
2T	2I	16CLL	4cc
.	.	16c	.
.	.	16B	.
.	.	16cJJ	.
.	.	16dLL	4cc
.	.	16c	.
.	.	16B	.
.	.	16cJJ	.
=	=	=	=
2T	2I6	16ELL	4cc 4gg
.	.	16c	.
.	.	16B	.
.	.	16cJJ	.
.	.	16dLL	[4cc [4gg
.	.	16c	.
.	.	16B	.
.	.	16cJJ	.
=	=	=	=
2T	2IV	16FLL	4cc_ 4gg] [4aa
.	.	16c	.
.	.	16B	.
.	.	16cJJ	.
.	.	16dLL	4cc_ [4ff 4aa]
.	.	16c	.
.	.	16B	.
.	.	16cJJ	.
=	=	=	=
2T	2I	16CLL	4cc_ 4ff] [4gg
.	.	16c	.
.	.	16B	.
.	.	16cJJ	.
.	.	16dLL	4cc_ [4ee 4gg]
.	.	16c	.
.	.	16B	.
.	.	16cJJ	.
=	=	=	=
4T	4IV65	16AALL	4cc] 4ee] 4ff
.	.	16A	.
.	.	16G#	.
.	.	16AJJ	.
4T	4V65	16BBLL	4g 4dd 4ff
.	.	16B	.
.	.	16A#	.
.	.	16BJJ	.
=	=	=	=
4T	4I	16CLL	4g 4dd 4ee
.	.	16c	.
.	.	16B	.
.	.	16cJJ	.
4T	4vi	16AALL	4a 4cc 4ee
.	.	16A	.
.	.	16G#	.
.	.	16AJJ	.
=	=	=	=
4P	4ii6	16FFLL	4a 4cc 4dd
.	.	16F	.
.	.	16E	.
.	.	16FJJ	.
*	*	*	*
*	*	*	*^
4D	4V	16GGLL	8.gL	4b 4dd
.	.	16G	.	.
.	.	16F#	.	.
.	.	16GJJ	16fJk	.
*	*	*	*	*
*	*	*	*v	*v
=	=	=	=
2T	2I	4CC	4e 4g 4cc
.	.	4C	4r
=	=	=	=
*-	*-	*-	*-
!!!COM: Mozart
!!!OTL: 12 Variations on "Ah Vous dirais-je, Maman" for the Piano,
!!!Variation: 2 b
**function	**harm	**kern	**kern
*M2/4	*M2/4	*M2/4	*M2/4
=-	=-	=-	=-
2D	2I64	16GLL	4cc 4gg
.	.	16e	.
.	.	16d#	.
.	.	16eJJ	.
.	.	16fLL	4cc 4gg
.	.	16e	.
.	.	16d#	.
.	.	16eJJ	.
=	=	=	=
2D	2V7	16GLL	4cc 4ff
.	.	16d	.
.	.	16c#	.
.	.	16dJJ	.
.	.	16eLL	4b 4ff
.	.	16d	.
.	.	16c#	.
.	.	16dJJ	.
=	=	=	=
2D	2I64	16GLL	8.ccL 8.ee
.	.	16g	.
.	.	16f#	.
.	.	16gJJ	16ddJk
.	.	16aLL	8.ccL 8.ee
.	.	16g	.
.	.	16f#	.
.	.	16aJJ	16ffJk
=	=	=	=
*	*	*	*
*	*	*	*^
4D	4C64	16GLL	(4ee	2b
.	.	16f	.	.
.	.	16e	.	.
.	.	16fJJ	.	.
4D	4V7	16gLL	4dd)	.
.	.	16f	.	.
.	.	16e	.	.
.	.	16fJJ	.	.
*	*	*	*	*
*	*	*	*v	*v
=	=	=	=
2D	2I64	16GLL	4cc 4gg
.	.	16e	.
.	.	16d#	.
.	.	16eJJ	.
.	.	16fLL	4cc 4gg
.	.	16e	.
.	.	16d#	.
.	.	16eJJ	.
=	=	=	=
2D	2V7	16GLL	4cc 4ff
.	.	16d	.
.	.	16c#	.
.	.	16dJJ	.
.	.	16eLL	4b 4ff
.	.	16d	.
.	.	16c#	.
.	.	16dJJ	.
=	=	=	=
2D	2I	16GLL	8.gL 8.ee
.	.	16c	.
.	.	16B	.
.	.	16cJJ	16ddJk
.	.	16dLL	8.gL 8.ee
.	.	16c	.
.	.	16B	.
.	.	16cJJ	16ffJk
=	=	=	=
*	*	*	*
*	*	*	*^
4D	4C64	16GLL	(4ee	2g
.	.	16B	.	.
.	.	16A#	.	.
.	.	16BJJ	.	.
4D	4V	16cLL	4dd)	.
.	.	16B	.	.
.	.	16A#	.	.
.	.	16BJJ	.	.
*	*	*	*	*
*	*	*	*v	*v
=	=	=	=
*-	*-	*-	*-
!!!COM: Mozart
!!!OTL: 12 Variations on "Ah Vous dirais-je, Maman" for the Piano,
!!!Variation: 2 c
**function	**harm	**kern	**kern
*M2/4	*M2/4	*M2/4	*M2/4
=-	=-	=-	=-
2T	2I	16CLL	4e 4g 4cc
.	.	16c	.
.	.	16B	.
.	.	16cJJ	.
.	.	16dLL	8.ccL
.	.	16c	.
.	.	16B	.
.	.	16cJJ	32bLL
.	.	.	32ccJJJ
=	=	=	=
2T	2I6	16ELL	4gg
.	.	16c	.
.	.	16B	.
.	.	16cJJ	.
.	.	16dLL	[4cc [4gg
.	.	16c	.
.	.	16B	.
.	.	16cJJ	.
=	=	=	=
*	*	*	*
*	*	*	*^
2T	2IV	16FLL	4cc] 4gg] 4aa	4r
.	.	16c	.	.
.	.	16B	.	.
.	.	16cJJ	.	.
*	*	*	*	*
*	*	*	*v	*v
.	.	16dLL	[4cc [4ff 4aa
.	.	16c	.
.	.	16B	.
.	.	16cJJ	.
=	=	=	=
4T	4I	16CLL	4cc] 4ff] 4gg
.	.	16c	.
.	.	16B	.
.	.	16cJJ	.
4T	4viio7/ii	16C#LL	4b- [4ee 4gg
.	.	16c#	.
.	.	16B#	.
.	.	16c#JJ	.
=	=	=	=
4T	4V/V	16DLL	4a 4ee] 4ff#
.	.	16d	.
.	.	16c#	.
.	.	16dJJ	.
4T	4viio7	16BBLL	4a- [4dd 4ff
.	.	16B	.
.	.	16A#	.
.	.	16BJJ	.
=	=	=	=
4T	4I	16CLL	4g 4dd] 4ee
.	.	16c	.
.	.	16B	.
.	.	16cJJ	.
4T	4vi	16AALL	4a 4cc 4ee
.	.	16A	.
.	.	16G#	.
.	.	16AJJ	.
=	=	=	=
4P	4ii6	16FFLL	4a 4cc 4dd
.	.	16F	.
.	.	16E	.
.	.	16FJJ	.
*	*	*	*
*	*	*	*^
4D	4V	16GGLL	4b 4dd	8.gL
.	.	16G	.	.
.	.	16F#	.	.
.	.	16GJJ	.	16fJk
*	*	*	*	*
*	*	*	*v	*v
=	=	=	=
2T	2I	4CC	4e 4g 4cc
.	.	4C	4r
==	==	==	==
*-	*-	*-	*-
!!!COM: Mozart
!!!OTL: 12 Variations on "Ah Vous dirais-je, Maman" for the Piano,
!!!Variation: 3 a
**function	**harm	**kern	**kern
*M2/4	*M2/4	*M2/4	*M2/4
=-	=-	=-	=-
2T	2I	4CC	(12cL
.	.	.	12e
.	.	.	12gJ
.	.	4C	12ccL
.	.	.	12ee
.	.	.	12ggJ
=	=	=	=
*	*	*^	*
2T	2I6	2c	4E	12cccL
.	.	.	.	12gg
.	.	.	.	12ffJ
.	.	.	4C	12eeL
.	.	.	.	12dd
.	.	.	.	12ccJ)
=	=	=	=	=
2T	2IV	2c	4F	(12aaL
.	.	.	.	12gg#
.	.	.	.	12aaJ
.	.	.	4C	12cccL
.	.	.	.	12bb
.	.	.	.	12aaJ)
=	=	=	=	=
2T	2I6	2c	4E	(12aaL
.	.	.	.	12ff#)
.	.	.	.	12gg'J
.	.	.	4C	12gg'L
.	.	.	.	12ccc'
.	.	.	.	12eee'J
*	*	*v	*v	*
=	=	=	=
4T	4IV6	4A 4c	(12eeeL
.	.	.	12ff')
.	.	.	12ff'J
4T	4viio	4B 4d	12ff'L
.	.	.	12bb'
.	.	.	12ddd'J
=	=	=	=
4T	4I	4c 4e	(12dddL
.	.	.	12ee')
.	.	.	12ee'J
4T	4vi	4A 4c	12ee'L
.	.	.	12aa'
.	.	.	12ccc'J
=	=	=	=
*	*	*^	*
4P	4ii6	4F 4A	4r	(12cccL
.	.	.	.	12dd)
.	.	.	.	12aa'J
4D	4V7	4G 4f	8.BL	(12aaL
.	.	.	.	12gg)
.	.	.	.	12b'J
.	.	.	16dJk	.
*	*	*v	*v	*
=	=	=	=
2T	2I	12cL 12e	4cc
.	.	12G	.
.	.	12EJ	.
.	.	4C	4r
=	=	=	=
*-	*-	*-	*-
!!!COM: Mozart	
!!!OTL: 12 Variations on "Ah Vous dirais-je, Maman" for the Piano,	
!!!Variation: 3 b	
!!!COM: Mozart
!!!OTL: 12 Variations on "Ah Vous dirais-je, Maman" for the Piano,
!!!Variation: 3 b
**function	**harm	**kern	**kern
*M2/4	*M2/4	*M2/4	*M2/4
=-	=-	=-	=-
*	*	*^	*
2D	2I64	4e	2G	(12ggL
.	.	.	.	12ff#)
.	.	.	.	12gg'J
.	.	4c	.	(12eeeL
.	.	.	.	12ccc)
.	.	.	.	12gg'J
=	=	=	=	=
2D	2V7	4d	2G	(12ggL
.	.	.	.	12ee)
.	.	.	.	12ff'J
.	.	4B	.	(12dddL
.	.	.	.	12bb)
.	.	.	.	12ff'J
=	=	=	=	=
2D	2I64	4c	2G	(12ffL
.	.	.	.	12dd#)
.	.	.	.	12ee'J
.	.	4e	.	(12cccL
.	.	.	.	12gg)
.	.	.	.	12ee'J
*	*	*v	*v	*
=	=	=	=
2D	2V7	2G 2f	(12eeL
.	.	.	12cc#)
.	.	.	12dd'J
.	.	.	(12ffL
.	.	.	12dd)
.	.	.	12b'J
=	=	=	=
*	*	*^	*
2D	2I64	4e	2G	(12ggL
.	.	.	.	12ff#)
.	.	.	.	12gg'J
.	.	4c#	.	(12eeeL
.	.	.	.	12aa)
.	.	.	.	12gg'J
=	=	=	=	=
2D	2V7	4d	2G	(12ggL
.	.	.	.	12ee)
.	.	.	.	12ff'J
.	.	4B	.	(12dddL
.	.	.	.	12gg)
.	.	.	.	12ff'J
*	*	*v	*v	*
=	=	=	=
4D	4I64	4G 4c	(12ffL
.	.	.	12dd#)
.	.	.	12ee'J
4@7D	4vii@7	4F# 4A 4c	(12cccL
.	.	.	12aa)
.	.	.	12ee'J
=	=	=	=
*	*	*^	*
4D	4C64	(8.eL	2G	(8.ggL
.	.	16cJk	.	16eeJk
4D	4V	4B)	.	4dd)
*	*	*v	*v	*
=	=	=	=
*-	*-	*-	*-
!!!COM: Mozart	
!!!OTL: 12 Variations on "Ah Vous dirais-je, Maman" for the Piano,	
!!!Variation: 3 c	
!!!COM: Mozart
!!!OTL: 12 Variations on "Ah Vous dirais-je, Maman" for the Piano,
!!!Variation: 3 c
**function	**harm	**kern	**kern
*M2/4	*M2/4	*M2/4	*M2/4
=-	=-	=-	=-
2T	2I	4CC	(12cL
.	.	.	12e
.	.	.	12gJ
.	.	4C	12ccL
.	.	.	12ee
.	.	.	12ggJ
=	=	=	=
*	*	*^	*
2T	2I6	2c	4E	12cccL
.	.	.	.	12gg
.	.	.	.	12ffJ
.	.	.	4C	12eeL
.	.	.	.	12dd
.	.	.	.	12ccJ)
=	=	=	=	=
2T	2IV	2c	4F	(12aaL
.	.	.	.	12gg#
.	.	.	.	12aaJ
.	.	.	4C	12cccL
.	.	.	.	12bb
.	.	.	.	12aaJ)
=	=	=	=	=
2T	2I6	2c	4E	(12aaL
.	.	.	.	12ff#)
.	.	.	.	12gg'J
.	.	.	4C	12gg'L
.	.	.	.	12ccc'
.	.	.	.	12eee'J
*	*	*v	*v	*
=	=	=	=
4T	4IV6	4A 4c	(12eeeL
.	.	.	12ff')
.	.	.	12ff'J
4T	4viio	4B 4d	12ff'L
.	.	.	12bb'
.	.	.	12ddd'J
=	=	=	=
4T	4I	4c 4e	(12dddL
.	.	.	12ee')
.	.	.	12ee'J
4T	4vi	4A 4c	12ee'L
.	.	.	12aa'
.	.	.	12ccc'J
=	=	=	=
*	*	*^	*
4P	4ii6	4F 4A	4r	(12cccL
.	.	.	.	12dd)
.	.	.	.	12aa'J
4D	4V7	4G 4f	8.BL	(12aaL
.	.	.	.	12gg)
.	.	.	.	12b'J
.	.	.	16dJk	.
*	*	*v	*v	*
=	=	=	=
2T	2I	12cL 12e	4cc
.	.	12G	.
.	.	12EJ	.
.	.	4C	4r
==	==	==	==
*-	*-	*-	*-
!!!COM: Mozart	
!!!OTL: 12 Variations on "Ah Vous dirais-je, Maman" for the Piano,	
!!!Variation: 4 a	
!!!COM: Mozart
!!!OTL: 12 Variations on "Ah Vous dirais-je, Maman" for the Piano,
!!!Variation: 4 a
**function	**harm	**kern	**kern
*M2/4	*M2/4	*M2/4	*M2/4
=-	=-	=-	=-
2T	2I	12CCL	4e 4g 4cc
.	.	12EE	.
.	.	12GGJ	.
.	.	12CL	4cc
.	.	12E	.
.	.	12CJ	.
=	=	=	=
2T	2I	12CCL	4cc 4ee 4gg
.	.	12EE	.
.	.	12GGJ	.
.	.	12CL	4gg
.	.	12E	.
.	.	12CJ	.
=	=	=	=
*	*	*	*
*	*	*	*^
2T	2IV64	12CCL	(4gg	2cc 2aa
.	.	12FF	.	.
.	.	12AAJ	.	.
.	.	12CL	4ff)	.
.	.	12F	.	.
.	.	12CJ	.	.
=	=	=	=	=
2T	2I	12CCL	(4ff	2cc 2gg
.	.	12EE	.	.
.	.	12GGJ	.	.
.	.	12CL	4ee)	.
.	.	12E	.	.
.	.	12CJ	.	.
*	*	*	*	*
*	*	*	*v	*v
=	=	=	=
4T	4IV65	12AAA'L	4cc 4ee 4ff
.	.	(12GG#	.
.	.	12AAJ)	.
4T	4V65	12BBB'L	4g 4dd 4ff
.	.	(12AA#	.
.	.	12BBJ)	.
=	=	=	=
4T	4I	12CC'L	4g 4dd 4ee
.	.	(12BB	.
.	.	12CJ)	.
4T	4vi	12AAA'L	4a 4cc 4ee
.	.	(12GG#	.
.	.	12AAJ)	.
=	=	=	=
4P	4ii6	12FFF'L	4a 4cc 4dd
.	.	(12EE	.
.	.	12FFJ)	.
4D	4V7	12GGG'L	4f 4b 4dd
.	.	(12FF#	.
.	.	12GGJ)	.
=	=	=	=
2T	2I	12CCL	4e 4g 4cc
.	.	12EE	.
.	.	12GGJ	.
.	.	4C	4r
=	=	=	=
*-	*-	*-	*-
!!!COM: Mozart
!!!OTL: 12 Variations on "Ah Vous dirais-je, Maman" for the Piano,
!!!Variation: 4 b
**function	**harm	**kern	**kern
*M2/4	*M2/4	*M2/4	*M2/4
=-	=-	=-	=-
*	*	*	*
*	*	*	*^
2D	2I64	12GGL	4gg	4ee
.	.	12C	.	.
.	.	12EJ	.	.
.	.	12GL	4gg	4ee
.	.	12c	.	.
.	.	12eJ	.	.
=	=	=	=	=
2D	2V7	12gL	2ff	(4ee
.	.	12f#	.	.
.	.	12gJ	.	.
.	.	12GL	.	4dd)
.	.	12A	.	.
.	.	12BJ	.	.
=	=	=	=	=
2T	2I	12cL	[4ee	(4dd
.	.	12B	.	.
.	.	12cJ	.	.
.	.	12CL	8.eeL]	4cc)
.	.	12E	.	.
.	.	12FJ	.	.
.	.	.	16aaJk	.
=	=	=	=	=
4D	4C64	12GL	(4ee	(4cc
.	.	12F#	.	.
.	.	12GJ	.	.
4D	4V7	4GG	12ddL)	4b)
.	.	.	12ee	.
.	.	.	12ffJ	.
*	*	*	*	*
*	*	*	*v	*v
=	=	=	=
*	*	*	*
*	*	*	*^
2D	2I64	12GGL	4gg	4ee
.	.	12C	.	.
.	.	12EJ	.	.
.	.	12GL	4gg	4ee
.	.	12c	.	.
.	.	12eJ	.	.
=	=	=	=	=
2D	2V7	12gL	2ff	(4ee
.	.	12f#	.	.
.	.	12gJ	.	.
.	.	12GL	.	4dd)
.	.	12A	.	.
.	.	12BJ	.	.
=	=	=	=	=
2T	2I	12cL	[4ee	(4dd
.	.	12B	.	.
.	.	12cJ	.	.
.	.	12CL	8.eeL]	4cc)
.	.	12E	.	.
.	.	12FJ	.	.
.	.	.	16aaJk	.
=	=	=	=	=
4D	4C64	12GL	(4ee	(4cc
.	.	12F#	.	.
.	.	12GJ	.	.
4D	4V	4GG	12ddL)	4b)
.	.	.	12ff	.
.	.	.	12ddJ	.
*	*	*	*	*
*	*	*	*v	*v
=	=	=	=
*-	*-	*-	*-
!!!COM: Mozart	
!!!OTL: 12 Variations on "Ah Vous dirais-je, Maman" for the Piano,	
!!!Variation: 4 c	
!!!COM: Mozart
!!!OTL: 12 Variations on "Ah Vous dirais-je, Maman" for the Piano,
!!!Variation: 4 c
**function	**harm	**kern	**kern
*M2/4	*M2/4	*M2/4	*M2/4
=-	=-	=-	=-
2T	2I	12CCL	4e 4g 4cc
.	.	12EE	.
.	.	12GGJ	.
.	.	12CL	4cc
.	.	12E	.
.	.	12CJ	.
=	=	=	=
2T	2I	12CCL	4cc 4ee 4gg
.	.	12EE	.
.	.	12GGJ	.
.	.	12CL	4gg
.	.	12E	.
.	.	12CJ	.
=	=	=	=
*	*	*	*
*	*	*	*^
2T	2IV64	12CCL	(4gg	2cc 2aa
.	.	12FF	.	.
.	.	12AAJ	.	.
.	.	12CL	4ff)	.
.	.	12F	.	.
.	.	12CJ	.	.
=	=	=	=	=
2T	2I	12CCL	(4ff	2cc 2gg
.	.	12EE	.	.
.	.	12GGJ	.	.
.	.	12CL	4ee)	.
.	.	12E	.	.
.	.	12CJ	.	.
*	*	*	*	*
*	*	*	*v	*v
=	=	=	=
4T	4IV65	12AAA'L	4cc 4ee 4ff
.	.	(12GG#	.
.	.	12AAJ)	.
4T	4V65	12BBB'L	4g 4dd 4ff
.	.	(12AA#	.
.	.	12BBJ)	.
=	=	=	=
4T	4I	12CC'L	4g 4dd 4ee
.	.	(12BB	.
.	.	12CJ)	.
4T	4vi	12AAA'L	4a 4cc 4ee
.	.	(12GG#	.
.	.	12AAJ)	.
=	=	=	=
4P	4ii6	12FFF'L	4a 4cc 4dd
.	.	(12EE	.
.	.	12FFJ)	.
4D	4V7	12GGG'L	4f 4b 4dd
.	.	(12FF#	.
.	.	12GGJ)	.
=	=	=	=
2T	2I	12CCL	4e 4g 4cc
.	.	12EE	.
.	.	12GGJ	.
.	.	4C	4r
==	==	==	==
*-	*-	*-	*-
!!!COM: Mozart	
!!!OTL: 12 Variations on "Ah Vous dirais-je, Maman" for the Piano,	
!!!Variation: 5 a	
!!!COM: Mozart
!!!OTL: 12 Variations on "Ah Vous dirais-je, Maman" for the Piano,
!!!Variation: 5 a
**function	**harm	**kern	**kern
*M2/4	*M2/4	*M2/4	*M2/4
=-	=-	=-	=-
2T	2I	8r	4.cc
.	.	8c	.
.	.	4e	.
.	.	.	8cc
=	=	=	=
2T	2I6	8r	4.gg
.	.	8e	.
.	.	4c	.
.	.	.	8gg
=	=	=	=
2T	2IV	8r	4.aa
.	.	8f	.
.	.	4c	.
.	.	.	8aa
=	=	=	=
2T	2I6	8r	4.gg
.	.	8e	.
.	.	4c	.
.	.	.	8ee 8gg
=	=	=	=
4T	4ii	8d	8r
.	.	8r	8ee 8ff
4T	4viio	8B	8r
.	.	8r	8dd 8ff
=	=	=	=
4T	4I	8c	8r
.	.	8r	8dd 8ee
4T	4vi	8A	8r
.	.	8r	8cc 8ee
=	=	=	=
4P	4ii6	8F	8r
.	.	8r	8cc 8dd
4D	4V	8G	8r
.	.	8r	8b 8dd
=	=	=	=
2T	2I	8r	4cc
.	.	8c	.
.	.	4C	4r
=	=	=	=
*-	*-	*-	*-
!!!COM: Mozart
!!!OTL: 12 Variations on "Ah Vous dirais-je, Maman" for the Piano,
!!!Variation: 5 b
**function	**harm	**kern	**kern
*M2/4	*M2/4	*M2/4	*M2/4
=-	=-	=-	=-
2D	2I64	8r	4.gg
.	.	(8e	.
.	.	4G)	.
.	.	.	(8gg
=	=	=	=
2D	2V7	8r	4.ff#)
.	.	(8d	.
.	.	4G)	.
.	.	.	(8ff
=	=	=	=
2D	2I64	8r	4.ee)
.	.	(8c	.
.	.	4G)	.
.	.	.	(8ee-
=	=	=	=
2D	2V	8r	4dd)
.	.	(8B	.
.	.	4G)	8r
.	.	.	8g
=	=	=	=
2D	2I64	8r	4.gg
.	.	(8e	.
.	.	4G)	.
.	.	.	(16ggLL
.	.	.	16ff#JJ
=	=	=	=
2D	2V7	8r	4.ff)
.	.	(8d	.
.	.	4G)	.
.	.	.	(16ffLL
.	.	.	16eeJJ
=	=	=	=
2D	2I64	8r	4.ee-)
.	.	(8c	.
.	.	4G)	.
.	.	.	(16ff#LL
.	.	.	16ggJJ
=	=	=	=
2D	2V	8r	4.dd)
.	.	(8B	.
.	.	4G)	.
.	.	.	(16ffLL
.	.	.	16ddJJ
=	=	=	=
*-	*-	*-	*-
!!!COM: Mozart	
!!!OTL: 12 Variations on "Ah Vous dirais-je, Maman" for the Piano,	
!!!Variation: 5 c	
!!!COM: Mozart
!!!OTL: 12 Variations on "Ah Vous dirais-je, Maman" for the Piano,
!!!Variation: 5 c
**function	**harm	**kern	**kern
*M2/4	*M2/4	*M2/4	*M2/4
=-	=-	=-	=-
2T	2I	8r	4.cc)
.	.	(16CLL	.
.	.	16EJJ	.
.	.	4G)	.
.	.	.	(16ccLL
.	.	.	16eeJJ
=	=	=	=
2T	2I	8r	4.gg)
.	.	(16cLL	.
.	.	16eJJ	.
.	.	4g)	.
.	.	.	(16ggLL
.	.	.	16eeJJ
=	=	=	=
2T	2IV	8r	4.aa)
.	.	(16fLL	.
.	.	16aJJ	.
.	.	4c)	.
.	.	.	(16aaLL
.	.	.	16cccJJ
=	=	=	=
2T	2I	8r	4.gg)
.	.	(16eLL	.
.	.	16gJJ	.
.	.	4c)	.
.	.	.	(16eeLL
.	.	.	16ggJJ)
=	=	=	=
2T	2viio	8d	8r
.	.	8r	(16ggLL
.	.	.	16ff#JJ)
.	.	8B	8r
.	.	8r	(16ddLL
.	.	.	16ffJJ)
=	=	=	=
4T	4I	8c	8r
.	.	8r	(16ffLL
.	.	.	16eeJJ)
4T	4I6	8E	8r
.	.	8r	(16ggLL
.	.	.	16eeJJ)
=	=	=	=
4P	4ii6	8F	8r
.	.	8r	(16cc#LL
.	.	.	16ddJJ)
4D	4V7	8G	8r
.	.	8r	(16ffLL
.	.	.	16ddJJ)
=	=	=	=
2T	2I	8c	8r
.	.	8r	(16bLL
.	.	.	16ccJJ)
.	.	8C	4r
.	.	8r	.
==	==	==	==
*-	*-	*-	*-
!!!COM: Mozart
!!!OTL: 12 Variations on "Ah Vous dirais-je, Maman" for the Piano,
!!!Variation: 6 a
**function	**harm	**kern	**kern
*M2/4	*M2/4	*M2/4	*M2/4
=-	=-	=-	=-
2T	2I	16CLL	8e 8g 8cc
.	.	16BB	.
.	.	16C	8r
.	.	16BBJJ	.
.	.	16CLL	8e 8g 8cc
.	.	16BB	.
.	.	16C	8r
.	.	16BBJJ	.
=	=	=	=
2T	2I6	16CLL	8cc 8ee 8gg
.	.	16BB	.
.	.	16C	8r
.	.	16BBJJ	.
.	.	16CLL	8cc 8ee 8gg
.	.	16D	.
.	.	16E	8r
.	.	16CJJ	.
=	=	=	=
2T	2IV	16FLL	8cc 8gg 8aa
.	.	16E	.
.	.	16F	8r
.	.	16EJJ	.
.	.	16FLL	8cc 8ff 8aa
.	.	16G	.
.	.	16A	8r
.	.	16BJJ	.
=	=	=	=
2T	2I6	16cLL	8cc 8ff 8gg
.	.	16B	.
.	.	16c	8r
.	.	16BJJ	.
.	.	16cLL	8cc 8ee 8gg
.	.	16d	.
.	.	16e	8r
.	.	16cJJ	.
=	=	=	=
4T	4ii42	16dLL	8a 8ee 8ff
.	.	16c#	.
.	.	16d	8r
.	.	16cJJ	.
4T	4V65	16BLL	8g 8dd 8ff
.	.	16A	.
.	.	16B	8r
.	.	16GJJ	.
=	=	=	=
4T	4I	16cLL	8g 8dd 8ee
.	.	16B	.
.	.	16c	8r
.	.	16BJJ	.
4T	4vi	16ALL	8a 8cc 8ee
.	.	16G#	.
.	.	16A	8r
.	.	16GJJ	.
=	=	=	=
4P	4ii6	16FLL	8f 8a 8dd
.	.	16E	.
.	.	16F	8r
.	.	16DJJ	.
4D	4V7	16GLL	8d 8f 8b
.	.	16F#	.
.	.	16G	8r
.	.	16GGJJ	.
=	=	=	=
2T	2I	16CLL	4e 4g 4cc
.	.	16GG	.
.	.	16EE	.
.	.	16GGJJ	.
.	.	4CC	4r
=	=	=	=
*-	*-	*-	*-
!!!COM: Mozart
!!!OTL: 12 Variations on "Ah Vous dirais-je, Maman" for the Piano,
!!!Variation: 6 b
**function	**harm	**kern	**kern
*M2/4	*M2/4	*M2/4	*M2/4
=-	=-	=-	=-
2D	2I64	4GG 4E	16GLL
.	.	.	16F#
.	.	.	16G
.	.	.	16F#JJ
.	.	4GG 4E	16GLL
.	.	.	16F#
.	.	.	16G
.	.	.	16F#JJ
=	=	=	=
2D	2V7	4GG 4D 4F	16GLL
.	.	.	16F#
.	.	.	16G
.	.	.	16F#JJ
.	.	4GG 4D 4F	16GLL
.	.	.	16A
.	.	.	16B
.	.	.	16GJJ
=	=	=	=
2D	2I64	4GG 4C 4E	16cLL
.	.	.	16B
.	.	.	16c
.	.	.	16dJJ
.	.	4GG 4C 4E	16eLL
.	.	.	16d
.	.	.	16e
.	.	.	16f#JJ
=	=	=	=
2D	2V	4GG 4BB 4D	16gLL
.	.	.	16f#
.	.	.	16g
.	.	.	16f#JJ
.	.	4GG 4BB 4D	16gLL
.	.	.	16f#
.	.	.	16g
.	.	.	16f#JJ
=	=	=	=
2D	2I64	4GG 4E 4G	16gLL
.	.	.	16f#
.	.	.	16g
.	.	.	16f#JJ
.	.	4GG 4E 4G	16gLL
.	.	.	16f#
.	.	.	16g
.	.	.	16f#JJ
=	=	=	=
2D	2V7	4GG 4D 4F	16gLL
.	.	.	16f#
.	.	.	16g
.	.	.	16f#JJ
.	.	4GG 4D 4F	16gLL
.	.	.	16a
.	.	.	16b
.	.	.	16gJJ
=	=	=	=
2D	2I64	4GG 4C 4E	16ccLL
.	.	.	16b
.	.	.	16cc
.	.	.	16ddJJ
.	.	4GG 4C 4E	16eeLL
.	.	.	16dd
.	.	.	16ee
.	.	.	16ff#JJ
=	=	=	=
2D	2V	4GG 4BB 4D	16ggLL
.	.	.	16aa
.	.	.	16ff
.	.	.	16ggJJ
.	.	4r	16eeLL
.	.	.	16ff
.	.	.	16dd
.	.	.	16eeJJ
=	=	=	=
*-	*-	*-	*-
!!!COM: Mozart
!!!OTL: 12 Variations on "Ah Vous dirais-je, Maman" for the Piano,
!!!Variation: 6 c
**function	**harm	**kern	**kern
*M2/4	*M2/4	*M2/4	*M2/4
=-	=-	=-	=-
2T	2I	16CLL	8e 8g 8cc
.	.	16BB	.
.	.	16C	8r
.	.	16BBJJ	.
.	.	16CLL	8e 8g 8cc
.	.	16BB	.
.	.	16C	8r
.	.	16BBJJ	.
=	=	=	=
2T	2I6	16CLL	8cc 8ee 8gg
.	.	16BB	.
.	.	16C	8r
.	.	16BBJJ	.
.	.	16CLL	8cc 8ee 8gg
.	.	16D	.
.	.	16E	8r
.	.	16CJJ	.
=	=	=	=
2T	2IV	16FLL	8cc 8gg 8aa
.	.	16E	.
.	.	16F	8r
.	.	16EJJ	.
.	.	16FLL	8cc 8ff 8aa
.	.	16G	.
.	.	16A	8r
.	.	16BJJ	.
=	=	=	=
2T	2I6	16cLL	8cc 8ff 8gg
.	.	16B	.
.	.	16c	8r
.	.	16BJJ	.
.	.	16cLL	8cc 8ee 8gg
.	.	16d	.
.	.	16e	8r
.	.	16cJJ	.
=	=	=	=
4T	4ii42	16dLL	8a 8ee 8ff
.	.	16c#	.
.	.	16d	8r
.	.	16cJJ	.
4T	4V65	16BLL	8g 8dd 8ff
.	.	16A	.
.	.	16B	8r
.	.	16GJJ	.
=	=	=	=
4T	4I	16cLL	8g 8dd 8ee
.	.	16B	.
.	.	16c	8r
.	.	16BJJ	.
4T	4vi	16ALL	8a 8cc 8ee
.	.	16G#	.
.	.	16A	8r
.	.	16GJJ	.
=	=	=	=
4P	4ii6	16FLL	8f 8a 8dd
.	.	16E	.
.	.	16F	8r
.	.	16DJJ	.
4D	4V7	16GLL	8d 8f 8b
.	.	16F#	.
.	.	16G	8r
.	.	16GGJJ	.
=	=	=	=
2T	2I	16CLL	4e 4g 4cc
.	.	16GG	.
.	.	16EE	.
.	.	16GGJJ	.
.	.	4CC	4r
==	==	=	=
*-	*-	*-	*-
!!!COM: Mozart
!!!OTL: 12 Variations on "Ah Vous dirais-je, Maman" for the Piano,
!!!Variation: 7 a
**function	**harm	**kern	**kern
*M2/4	*M2/4	*M2/4	*M2/4
=-	=-	=-	=-
2T	2I	2CC 2C	(8cL
.	.	.	16dL
.	.	.	16eJJ
.	.	.	16fLL
.	.	.	16g
.	.	.	16a
.	.	.	16bJJ
=	=	=	=
2T	2I6	(4E	16ccLL
.	.	.	16dd
.	.	.	16ee
.	.	.	16ffJJ
.	.	4C)	16ggLL
.	.	.	16aa
.	.	.	16bb
.	.	.	16cccJJ
=	=	=	=
2T	2IV	(4F	16bbLL
.	.	.	16aa
.	.	.	16gg#
.	.	.	16aaJJ
.	.	4C)	16dddLL
.	.	.	16ccc
.	.	.	16bb
.	.	.	16aaJJ)
=	=	=	=
4T	4I6	4E	(16aaLL
.	.	.	16gg
.	.	.	16ff#
.	.	.	16ggJJ)
4	4I	4C 4c	16r
.	.	.	(16ggLL
.	.	.	16eee
.	.	.	16ggJJ)
=	=	=	=
4	4IV6	4AA 4A	16r
.	.	.	(16ffLL
.	.	.	16eee
.	.	.	16ffJJ)
4	4viio	4BB 4B	16r
.	.	.	(16ffLL
.	.	.	16ddd
.	.	.	16ffJJ)
=	=	=	=
4	4V65/vi	4GG# 4G#	16r
.	.	.	(16eeLL
.	.	.	16ddd
.	.	.	16eeJJ)
4	4vi	4AA 4A	16r
.	.	.	(16eeLL
.	.	.	16ccc
.	.	.	16eeJJ)
=	=	=	=
4P	4ii65	4FF 4F	16r
.	.	.	(16ddLL
.	.	.	16ccc
.	.	.	16ddJJ)
4D	4V	4GG 4G	16r
.	.	.	(16ddLL
.	.	.	16bb
.	.	.	16ddJJ)
=	=	=	=
2T	2I	4CC 4C	4ee 4gg 4ccc
.	.	4r	4r
=	=	=	=
*-	*-	*-	*-
!!!COM: Mozart
!!!OTL: 12 Variations on "Ah Vous dirais-je, Maman" for the Piano,
!!!Variation: 7 b
**function	**harm	**kern	**kern
*M2/4	*M2/4	*M2/4	*M2/4
=-	=-	=-	=-
2D	2I64	2G 2e	(16ggLL
.	.	.	16ccc
.	.	.	16eee
.	.	.	16dddJJ
.	.	.	16cccLL
.	.	.	16bb
.	.	.	16aa
.	.	.	16ggJJ
=	=	=	=
2D	2V7	2G 2d	16ffLL
.	.	.	16ee
.	.	.	16dd
.	.	.	16ccJJ
.	.	.	16bLL
.	.	.	16a
.	.	.	16g
.	.	.	16fJJ
=	=	=	=
2D	2I64	2G 2c	8eL)
.	.	.	(8ee'J
.	.	.	8ff'L
.	.	.	8ff#'J)
=	=	=	=
2D	2V	2G 2B	(8.ggL
.	.	.	16eeJk
.	.	.	8dd)
.	.	.	8r
=	=	=	=
2D	2I64	2G 2e	(16ggLL
.	.	.	16ccc
.	.	.	16eee
.	.	.	16dddJJ
.	.	.	16cccLL
.	.	.	16bb
.	.	.	16aa
.	.	.	16ggJJ
=	=	=	=
2D	2V7	2G 2d	16ffLL
.	.	.	16ee
.	.	.	16dd
.	.	.	16ccJJ
.	.	.	16bLL
.	.	.	16a
.	.	.	16g
.	.	.	16fJJ
=	=	=	=
2D	2I64	2G 2c	8eL)
.	.	.	(8ee'J
.	.	.	8ff'L
.	.	.	8ff#'J)
=	=	=	=
2D	2V	2G 2B	(8.ggL
.	.	.	16eeJk
.	.	.	8dd)
.	.	.	8r
=	=	=	=
*-	*-	*-	*-
!!!COM: Mozart
!!!OTL: 12 Variations on "Ah Vous dirais-je, Maman" for the Piano,
!!!Variation: 7 c
**function	**harm	**kern	**kern
*M2/4	*M2/4	*M2/4	*M2/4
=-	=-	=-	=-
2T	2I	2CC 2C	(8cL
.	.	.	16dL
.	.	.	16eJJ
.	.	.	16fLL
.	.	.	16g
.	.	.	16a
.	.	.	16bJJ
=	=	=	=
2T	2I6	(4E	16ccLL
.	.	.	16dd
.	.	.	16ee
.	.	.	16ffJJ
.	.	4C)	16ggLL
.	.	.	16aa
.	.	.	16bb
.	.	.	16cccJJ
=	=	=	=
2T	2IV	(4F	16bbLL
.	.	.	16aa
.	.	.	16gg#
.	.	.	16aaJJ
.	.	4C)	16dddLL
.	.	.	16ccc
.	.	.	16bb
.	.	.	16aaJJ)
=	=	=	=
4T	4I6	4E	(16aaLL
.	.	.	16gg
.	.	.	16ff#
.	.	.	16ggJJ)
4	4I	4C 4c	16r
.	.	.	(16ggLL
.	.	.	16eee
.	.	.	16ggJJ)
=	=	=	=
4	4IV6	4AA 4A	16r
.	.	.	(16ffLL
.	.	.	16eee
.	.	.	16ffJJ)
4	4viio	4BB 4B	16r
.	.	.	(16ffLL
.	.	.	16ddd
.	.	.	16ffJJ)
=	=	=	=
4	4V65/vi	4GG# 4G#	16r
.	.	.	(16eeLL
.	.	.	16ddd
.	.	.	16eeJJ)
4	4vi	4AA 4A	16r
.	.	.	(16eeLL
.	.	.	16ccc
.	.	.	16eeJJ)
=	=	=	=
4P	4ii65	4FF 4F	16r
.	.	.	(16ddLL
.	.	.	16ccc
.	.	.	16ddJJ)
4D	4V	4GG 4G	16r
.	.	.	(16ddLL
.	.	.	16bb
.	.	.	16ddJJ)
=	=	=	=
2T	2I	4CC 4C	4ee 4gg 4ccc
.	.	4r	4r
==	==	=	=
*-	*-	*-	*-
!!!COM: Mozart
!!!OTL: 12 Variations on "Ah Vous dirais-je, Maman" for the Piano,
!!!Variation: 8 a
**kern	**harm	**kern	**kern
*M2/4	*M2/4	*M2/4	*M2/4
=-	=-	=-	=-
*	*	*k[b-e-a-]	*k[b-e-a-]
2T	2i	2r	8cc'L
.	.	.	8dd'J
.	.	.	8ee-'L
.	.	.	8ff'J
=	=	=	=
2T	2i	2r	4gg
.	.	.	[4gg
*	*	*clefG2	*
=	=	=	=
*	*	*	*^
2T	2iv	8f'L	2aa-	4gg]
.	.	8g'J	.	.
.	.	8a-'L	.	[4ff
.	.	8b-'J	.	.
=	=	=	=	=
2T	2i	4cc	2gg	4ff]
.	.	4cc	.	[4ee-
*	*	*clefF4	*	*
=	=	=	=	=
2T	2V7	8G'L	2ff	[4g 4ee-]
.	.	8A'J	.	.
.	.	8B'L	.	4g_ [4dd
.	.	8G'J	.	.
=	=	=	=	=
4T	4i	8c'L	2ee-	4g] 4dd]
.	.	8G'J	.	.
4T	4VI	8A-'L	.	[4cc
.	.	8E-'J	.	.
=	=	=	=	=
4P	4iio6	8F'L	2dd	4cc]
.	.	8D'J	.	.
4D	4V7	8G'L	.	4b
.	.	8GG'J	.	.
=	=	=	=	=
2T	2i	4C	4cc	4cc
.	.	4CC	4r	4r
=	=	=	=	=
*-	*-	*-	*-	*-
!!!COM: Mozart
!!!OTL: 12 Variations on "Ah Vous dirais-je, Maman" for the Piano,
!!!Variation: 8 b
**function	**harm	**kern	**kern
*M2/4	*M2/4	*M2/4	*M2/4
=-	=-	=-	=-
*	*	*	*^
2D	2V	[2GG [2G	8r	2g
.	.	.	(8gg	.
.	.	.	8aa-L	.
.	.	.	8ggJ)	.
=	=	=	=	=
4D	4viio/V	2GG] 2G]	(4ff#	(4a
4D	4V7	.	4ff)	4b)
=	=	=	=	=
4D	4I64	[2G	4ee	8ccL
.	.	.	.	(8gJ
4D	4i64	.	[4ee-	8a-L
.	.	.	.	8gJ)
=	=	=	=	=
*	*	*^	*	*
*	*	*	*	*	*
4D	4viio7	2G]	4A	4ee-]	(4f#
4D	4V7	.	4B	[4dd	4f)
*	*	*v	*v	*	*
*	*	*	*	*
=	=	=	=	=
4D	4I64	8cL	4dd]	4e
.	.	8GGJ 8G	.	.
4D	4i64	8AA-L 8A-	[4cc	[4e-
.	.	8GGJ 8G	.	.
=	=	=	=	=
4D	4viio/V	4FF# 4F#	4a 4cc]	4e-]
4D	4viio43	4FF 4F	4b	4a-
=	=	=	=	=
4D	4I6	4EE 4E	8cc'L	2g
.	.	.	8dd'J	.
4D	4i6	4EE- 4E-	8ee-'L	.
.	.	.	8ff'J	.
=	=	=	=	=
4D	4V64	4DD 4D	(8ggL	2g
.	.	.	8ffJ)	.
4D	4V	4GGG 4GG	8ee-'L	.
.	.	.	8dd'J	.
*	*	*	*	*
*	*	*	*v	*v
=	=	=	=
*-	*-	*-	*-
!!!COM: Mozart
!!!OTL: 12 Variations on "Ah Vous dirais-je, Maman" for the Piano,
!!!Variation: 8 c
**function	**harm	**kern	**kern
*M2/4	*M2/4	*M2/4	*M2/4
=-	=-	=-	=-
2T	2i	4CC 4C	8cc'L
.	.	.	8dd'J
.	.	4r	8ee-'L
.	.	.	8ff'J
=	=	=	=
2T	2i	2r	(8ff#L
.	.	.	16ggJk)
.	.	.	16r
.	.	.	(8ff#L
.	.	.	16ggJk)
.	.	.	16r
*	*	*clefG2	*
=	=	=	=
*	*	*	*^
2T	2iv	8f'L	2aa-	4gg
.	.	8g'J	.	.
.	.	8a-'L	.	[4ff
.	.	8b-'J	.	.
=	=	=	=	=
2T	2i	(8bL	2gg	4ff]
.	.	16ccJk)	.	.
.	.	16r	.	.
.	.	(8bL	.	[4ee-
.	.	16ccJk)	.	.
.	.	16r	.	.
*	*	*clefF4	*	*
=	=	=	=	=
2T	2V7	8G'L	2ff	[4g 4ee-]
.	.	8A'J	.	.
.	.	8B'L	.	4g_ [4dd
.	.	8G'J	.	.
=	=	=	=	=
4T	4i	8c'L	2ee-	4g] 4dd]
.	.	8G'J	.	.
4T	4VI	8A-'L	.	[4cc
.	.	8E-'J	.	.
=	=	=	=	=
4P	4iio6	8F'L	2dd	4cc]
.	.	8D'J	.	.
4D	4V7	8G'L	.	4b
.	.	8GG'J	.	.
=	=	=	=	=
2T	2i	4C	4cc	4cc
.	.	4CC	4r	4r
*	*	*	*v	*v
==	==	==	==
*-	*-	*-	*-
!!!COM: Mozart
!!!OTL: 12 Variations on "Ah Vous dirais-je, Maman" for the Piano,
!!!Variation: 9 a
**function	**harm	**kern	**kern
*M2/4	*M2/4	*M2/4	*M2/4
*tb8	*	*k[]	*k[]
=-	=-	=-	=-
2T	2I	2r	4cc'
.	.	.	4cc'
=	=	=	=
2T	2I	2r	4gg'
.	.	.	[4gg
*	*	*clefG2	*
=	=	=	=
2T	2IV	4f'	4gg] [4aa
.	.	4f'	[4ff 4aa]
=	=	=	=
2T	2I	4cc'	4ff] [4gg
.	.	4cc'	[4ee 4gg]
*	*	*clefF4	*
=	=	=	=
2T	2V7	4G'	4ee] [4ff
.	.	4G'	[4dd 4ff]
=	=	=	=
2T	2I	4c'	4dd] [4ee
.	.	4c'	8ccL 8ee]
*	*	*	*
*	*	*	*^
.	.	.	8ccJ	8r
=	=	=	=	=
2D	2V7	4GGG 4GG	(8ccL	2d 2f
.	.	.	8bJ	.
.	.	4GGG 4GG	8aL	.
.	.	.	8bJ)	.
=	=	=	=	=
2T	2I	4CC 4C	4cc	4e
.	.	4r	4r	4r
*	*	*	*	*
*	*	*	*v	*v
=	=	=	=
*-	*-	*-	*-
!!!COM: Mozart
!!!OTL: 12 Variations on "Ah Vous dirais-je, Maman" for the Piano,
!!!Variation: 9 b
**function	**harm	**kern	**kern
*M2/4	*M2/4	*M2/4	*M2/4
=-	=-	=-	=-
2D	2I64	2r	4gg'
.	.	.	4gg'
=	=	=	=
2D	2V42	2r	4ff'
.	.	.	4ff'
*	*	*clefG2	*
=	=	=	=
2D	2I64	4g' 4cc'	4ee
.	.	4g' 4cc'	(8.eeL
.	.	.	16ffJk)
=	=	=	=
2D	2V42	4f' 4b'	(4ee
.	.	4f' 4b'	4dd)
*	*	*clefF4	*
=	=	=	=
*	*	*	*
*	*	*	*^
2D	2I64	4G' 4e'	4cc	2g
.	.	4G' 4e'	[4cc	.
=	=	=	=	=
2D	2V42	4F' 4d'	8ccL]	2g
.	.	.	8bJ	.
.	.	4F' 4d'	8aL	.
.	.	.	8bJ	.
=	=	=	=	=
2D	2I64	4GG' 4E'	8ccL	2g
.	.	.	8cc'J	.
.	.	4GG' 4E'	8dd'L	.
.	.	.	8ee'J	.
=	=	=	=	=
2D	2V42	4FF' 4D'	8ff'L	4g
.	.	.	8gg'J	.
.	.	4FF' 4D'	8aa'L	4r
.	.	.	8bb'J	.
*	*	*	*	*
*	*	*	*v	*v
=	=	=	=
*-	*-	*-	*-
!!!COM: Mozart
!!!OTL: 12 Variations on "Ah Vous dirais-je, Maman" for the Piano,
!!!Variation: 9 c
**function	**harm	**kern	**kern
*M2/4	*M2/4	*M2/4	*M2/4
=-	=-	=-	=-
2T	2I	4EE' 4C'	4ccc'
.	.	4r	4ccc'
=	=	=	=
2T	2I	2r	4gg'
.	.	.	4gg'
=	=	=	=
*	*	*	*
*	*	*	*^
2T	2IV	2r	4aa'	4ff'
.	.	.	4aa'	4ff'
=	=	=	=	=
2T	2I	2r	4gg'	4cc
.	.	.	(8.eeL	4cc
.	.	.	16ggJk)	.
=	=	=	=	=
2T	2V7	4g'	4ff'	4b
.	.	4g'	(8.ddL	4b
.	.	.	16ffJk)	.
=	=	=	=	=
2T	2I	4c'	4ee'	4cc
.	.	4c'	4cc'	4e 4g
=	=	=	=	=
2D	2V7	4GGG 4GG	(8ccL	2d 2f
.	.	.	8bJ	.
.	.	4GGG 4GG	8aL	.
.	.	.	8bJ)	.
=	=	=	=	=
2T	2I	4CC 4C	4cc	4e
.	.	4r	4r	4r
*	*	*	*v	*v
==	==	==	==
*-	*-	*-	*-
!!!COM: Mozart	
!!!OTL: 12 Variations on "Ah Vous dirais-je, Maman" for the Piano,	
!!!Variation: 10 a	
!!!COM: Mozart
!!!OTL: 12 Variations on "Ah Vous dirais-je, Maman" for the Piano,
!!!Variation: 10 a
**function	**harm	**kern	**kern
*M2/4	*M2/4	*M2/4	*M2/4
=-	=-	=-	=-
*	*	*	*^
2T	2I	4CC 4C	4r	16r
.	.	.	.	(16eLL
.	.	.	.	16cc
.	.	.	.	16eJJ)
.	.	4r	4cc	16r
.	.	.	.	(16eLL
.	.	.	.	16g
.	.	.	.	16eJJ)
=	=	=	=	=
2T	2I6	2r	4gg	16r
.	.	.	.	(16eLL
.	.	.	.	16cc
.	.	.	.	16eJJ)
.	.	.	4gg	16r
.	.	.	.	(16eLL
.	.	.	.	16cc
.	.	.	.	16eJJ)
=	=	=	=	=
2T	2IV	2r	4aa	16r
.	.	.	.	(16fLL
.	.	.	.	16cc
.	.	.	.	16fJJ)
.	.	.	4aa	16r
.	.	.	.	(16fLL
.	.	.	.	16cc
.	.	.	.	16fJJ)
=	=	=	=	=
4T	4I6	4r	4gg	16r
.	.	.	.	(16eLL
.	.	.	.	16cc
.	.	.	.	16eJJ)
4T	4viio7/ii	4C# 4c#	16r	16r
*	*	*	*	*
*	*	*	*v	*v
.	.	.	(16b-LL
.	.	.	16ee 16gg
.	.	.	16b-JJ)
=	=	=	=
4T	4V/V	4D 4d	16r
.	.	.	(16aLL
.	.	.	16dd 16ff#
.	.	.	16aJJ)
4T	4viio7	4BB 4B	16r
.	.	.	(16a-LL
.	.	.	16dd 16ff
.	.	.	16a-JJ)
=	=	=	=
4T	4i	4C 4c	16r
.	.	.	(16gLL
.	.	.	16cc 16ee
.	.	.	16gJJ)
4T	4viio7/V	4FF# 4F#	16r
.	.	.	(16aLL
.	.	.	16cc 16ee-
.	.	.	16aJJ)
=	=	=	=
4T	4C64	4GG 4G	16r
.	.	.	(16gLL
.	.	.	16cc 16dd
.	.	.	16gJJ)
4D	4V	4GG	16r
.	.	.	(16fLL
.	.	.	16b 16dd
.	.	.	16fJJ)
=	=	=	=
2T	2I	4C	4e 4cc
.	.	4CC	4r
=	=	=	=
*-	*-	*-	*-
!!!COM: Mozart
!!!OTL: 12 Variations on "Ah Vous dirais-je, Maman" for the Piano,
!!!Variation: 10 b
!!!Note: Unidentifiable chord measure 5
**function	**harm	**kern	**kern
*M2/4	*M2/4	*M2/4	*M2/4
=-	=-	=-	=-
*	*	*	*
*	*	*	*^
*	*	*	*	*
2D	2I64	4GGG 4GG	4r	16r
.	.	.	.	(16eLL
.	.	.	.	16cc
.	.	.	.	16eJJ)
.	.	4r	4gg	16r
.	.	.	.	(16eLL
.	.	.	.	16cc
.	.	.	.	16eJJ)
=	=	=	=	=
4D	4V7/V	2r	4ff#	16r
.	.	.	.	(16dLL
.	.	.	.	16cc
.	.	.	.	16dJJ)
4D	4viio7	.	4ff	16r
.	.	.	.	(16dLL
.	.	.	.	16b
.	.	.	.	16dJJ)
*	*	*	*	*
*	*	*	*v	*v
*	*	*	*
=	=	=	=
*	*	*	*
*	*	*	*^
*	*	*	*	*
4D	4I	4r	4ee	16r
.	.	.	.	(16cLL
.	.	.	.	16cc
.	.	.	.	16cJJ)
4D	4i64	4GG 4G	16r	16r
*	*	*	*	*
*	*	*	*v	*v
.	.	.	(16gLL
.	.	.	16cc 16ee-
.	.	.	16gJJ)
*	*	*	*
*	*	*	*
=	=	=	=
4D	4V65/V	4FF# 4F#	16r
.	.	.	(16aLL
.	.	.	16cc 16dd
.	.	.	16aJJ)
4D	4viio43	4FF 4F	16r
.	.	.	(16a-LL
.	.	.	16b 16dd
.	.	.	16a-JJ)
=	=	=	=
4D	4I6	4EE 4E	16r
.	.	.	(16gLL
.	.	.	16cc 16ee
.	.	.	16gJJ)
4D	4It6/V	4EE- 4E-	16r
.	.	.	(16gLL
.	.	.	16cc# 16gg
.	.	.	16gJJ)
=	=	=	=
4D	4V/V	4DD 4D	16r
.	.	.	(16aLL
.	.	.	16dd 16ff#
.	.	.	16aJJ)
4D	4viio7	4BBB 4BB	16r
.	.	.	(16a-LL
.	.	.	16dd 16ff
.	.	.	16a-JJ)
=	=	=	=
4D	4I	4CC 4C	16r
.	.	.	(16gLL
.	.	.	16cc 16ee
.	.	.	16gJJ)
4D	4viio7/V	4FFF# 4FF#	16r
.	.	.	(16aLL
.	.	.	16cc 16ee-
.	.	.	16aJJ)
=	=	=	=
2D	2V	4GGG 4GG	(16bLL 16dd
.	.	.	16cc
.	.	.	16b
.	.	.	16aJJ
.	.	4r	16gLL
.	.	.	16f
.	.	.	16e
.	.	.	16dJJ)
=	=	=	=
*-	*-	*-	*-
!!!COM: Mozart	
!!!OTL: 12 Variations on "Ah Vous dirais-je, Maman" for the Piano,	
!!!Variation: 10 c	
!!!COM: Mozart
!!!OTL: 12 Variations on "Ah Vous dirais-je, Maman" for the Piano,
!!!Variation: 10 c
**function	**harm	**kern	**kern
*M2/4	*M2/4	*M2/4	*M2/4
=-	=-	=-	=-
*	*	*	*
*	*	*	*^
2T	2I	4CC 4C	4r	16r
.	.	.	.	(16eLL
.	.	.	.	16cc
.	.	.	.	16eJJ)
.	.	4r	4cc	16r
.	.	.	.	(16eLL
.	.	.	.	16g
.	.	.	.	16eJJ)
=	=	=	=	=
2T	2I6	2r	4gg	16r
.	.	.	.	(16eLL
.	.	.	.	16cc
.	.	.	.	16eJJ)
.	.	.	4gg	16r
.	.	.	.	(16eLL
.	.	.	.	16cc
.	.	.	.	16eJJ)
=	=	=	=	=
2T	2IV	2r	4aa	16r
.	.	.	.	(16fLL
.	.	.	.	16cc
.	.	.	.	16fJJ)
.	.	.	4aa	16r
.	.	.	.	(16fLL
.	.	.	.	16cc
.	.	.	.	16fJJ)
*	*	*	*	*
*	*	*	*v	*v
=	=	=	=
*	*	*	*
*	*	*	*^
4T	4I6	4r	4gg	16r
.	.	.	.	(16eLL
.	.	.	.	16cc
.	.	.	.	16eJJ)
4T	4viio7/ii	4C# 4c#	16r	16r
.	.	.	(16b-LL	16r
.	.	.	16ee 16gg	8r
.	.	.	16b-JJ)	.
*	*	*	*	*
*	*	*	*v	*v
=	=	=	=
4T	4V/V	4D 4d	16r
.	.	.	(16aLL
.	.	.	16dd 16ff#
.	.	.	16aJJ)
4T	4viio7	4BB 4B	16r
.	.	.	(16a-LL
.	.	.	16dd 16ff
.	.	.	16a-JJ)
=	=	=	=
4T	4i	4C 4c	16r
.	.	.	(16gLL
.	.	.	16cc 16ee
.	.	.	16gJJ)
4T	4viio7/V	4FF# 4F#	16r
.	.	.	(16aLL
.	.	.	16cc 16ee-
.	.	.	16aJJ)
=	=	=	=
4T	4C64	4GG 4G	16r
.	.	.	(16gLL
.	.	.	16cc 16dd
.	.	.	16gJJ)
4D	4V	4GG	16r
.	.	.	(16fLL
.	.	.	16b 16dd
.	.	.	16fJJ)
=	=	=	=
2T	2I	4C	4e 4cc
.	.	4CC	4r
==	==	==	==
*-	*-	*-	*-
!!!COM: Mozart	
!!!OTL: 12 Variations on "Ah Vous dirais-je, Maman" for the Piano,	
!!!Variation: 11 a	
!!!COM: Mozart
!!!OTL: 12 Variations on "Ah Vous dirais-je, Maman" for the Piano,
!!!Variation: 11 a
**function	**harm	**kern	**kern
*M2/4	*M2/4	*M2/4	*M2/4
=-	=-	=-	=-
2T	2I	2r	(8.ccL
.	.	.	16gJk)
.	.	.	(8.eeL
.	.	.	16ccJk)
=	=	=	=
2T	2I6	(8.cL	8gg
.	.	.	4gg
.	.	16GJk)	.
.	.	(8.eL	.
.	.	.	8gg
.	.	16cJk)	.
=	=	=	=
2T	2IV	(8.FL	8cc 8gg 8aa
.	.	.	4cc 4ff 4aa
.	.	16CJk)	.
.	.	(8.AL	.
.	.	.	8cc 8ff 8aa
.	.	16FJk)	.
=	=	=	=
2T	2I	(8.CL	8cc 8ff 8gg
.	.	.	4cc 4ee 4gg
.	.	16GGJk)	.
.	.	(8.EL	.
.	.	.	8cc 8ee 8gg
.	.	16CJk)	.
=	=	=	=
4T	4IV6	8A 8c 8f	(16ggLL
.	.	.	16ffJ)
.	.	8r	8ffJ
4T	4V6	8B 8d 8g	16r
.	.	.	(32eeeLLL
.	.	.	32dddJJ)
.	.	8r	(32cccLL
.	.	.	32bb)
.	.	.	(32aa
.	.	.	32ggJJJ)
=	=	=	=
4T	4I	8c 8e 8g	(16.ffLL
.	.	.	32dd#Jk
.	.	8r	8eeJ)
4T	4I6	8E 8G 8c	16r
.	.	.	(32aaLLL
.	.	.	32ggJJ)
.	.	8r	(32ffLL
.	.	.	32ee)
.	.	.	(32dd
.	.	.	32ccJJJ)
=	=	=	=
*	*	*^	*
*	*	*	*	*
4P	4ii6	4d	4F	(16.bLL
.	.	.	.	32aJk)
.	.	.	.	(32ggLL
.	.	.	.	32ff
.	.	.	.	32ee
.	.	.	.	32ddJJJ
8D	8C4	8gL	4G	8ccL)
8D	8V7	8fJ	.	8b'J
*	*	*v	*v	*
*	*	*	*
=	=	=	=
2T	2I	8cL	(4f 4g 4b 4dd
.	.	8GJ	.
.	.	8C	8e) 8g 8cc
.	.	8r	8r
=	=	=	=
*-	*-	*-	*-
!!!COM: Mozart	
!!!OTL: 12 Variations on "Ah Vous dirais-je, Maman" for the Piano,	
!!!Variation: 11 b	
!!!COM: Mozart
!!!OTL: 12 Variations on "Ah Vous dirais-je, Maman" for the Piano,
!!!Variation: 11 b
**function	**harm	**kern	**kern
*M2/4	*M2/4	*M2/4	*M2/4
=-	=-	=-	=-
2D	2I64	16GLL	(8.ggL
.	.	16c 16e	.
.	.	16c 16e	.
.	.	16cJJ 16e	32aaLL
.	.	.	32bbJJJ
.	.	16GLL	16cccLL)
.	.	16c 16e	16bb'
.	.	16c 16e	16aa'
.	.	16cJJ 16e	16gg'JJ
=	=	=	=
2D	2V7	16GLL	(16ggLL
.	.	16d 16f	32ffJJk)
.	.	.	32r
.	.	16d 16f	(16eeLL
.	.	16dJJ 16f	32ddJJk)
.	.	.	32r
.	.	16GLL	(8ccL
.	.	16d 16f	.
.	.	16d 16f	16bJk)
.	.	16dJJ 16f	16r
=	=	=	=
8.D	8.I6	8.eL 8.g	(8.ccL
16D	16V6	16BJk 16g	16ddJk)
8.D	8.I	8.cL 8.g	(8.eeL
16D	16viio64	16FJk 16d	16ffJk)
=	=	=	=
4D	4C64	(4G 4c	(8.eeL
.	.	.	32ffLL
.	.	.	32eeJJJ
4D	4V	8G) 8B	16ddLL)
.	.	.	(16ee'
.	.	8r	16ff'
.	.	.	16ff#'JJ)
=	=	=	=
2D	2I64	16GLL	(8.ggL
.	.	16e 16g	.
.	.	16e 16g	.
.	.	16eJJ 16g	32aaLL
.	.	.	32bbJJJ
.	.	16GLL	32cccLLL
.	.	.	32ddd
.	.	16e 16g	32eee
.	.	.	32dddJJ
.	.	16e 16g	32cccLL
.	.	.	32bb
.	.	16eJJ 16g	32aa
.	.	.	32ggJJJ)
=	=	=	=
4D	4V7	16GLL	(32ggLLL
.	.	.	32ff)
.	.	16d 16f	(32fff
.	.	.	32eeeJJ)
.	.	16d 16f	(32eeeLL
.	.	.	32ddd)
.	.	16dJJ 16f	(32ddd
.	.	.	32cccJJJ)
4D	4V	16GLL	(32cccLLL
.	.	.	32bb)
.	.	16B 16d	(32bb
.	.	.	32aaJJ)
.	.	16B 16d	(32aaLL
.	.	.	32gg)
.	.	16BJJ 16d	(32gg
.	.	.	32ffJJJ)
=	=	=	=
8D	8I	8c 8e	(16.eeLL
.	.	.	32cccJk)
4.D	4.viio65/V	4A; 4c; 4f#;	[8ccc;J
.	.	.	32cccLLL]
.	.	.	(32ddd
.	.	.	32eee
.	.	.	32dddJ
.	.	8r	16.ccc)
.	.	.	32ff#JJk
=	=	=	=
4D	4C64	(4G 4c	(4aa
4D	4V	8G) 8B	8gg)
.	.	8r;	48r
.	.	.	(48aaLLL
.	.	.	48ggJJ
.	.	.	48ffLL
.	.	.	48ee
.	.	.	48ddJJJ)
=	=	=	=
*-	*-	*-	*-
!!!COM: Mozart	
!!!OTL: 12 Variations on "Ah Vous dirais-je, Maman" for the Piano,	
!!!Variation: 11 c
**function	**harm	**kern	**kern
*M2/4	*M2/4	*M2/4	*M2/4
=-	=-	=-	=-
2T	2I	2r	(8.ccL
.	.	.	16gJk)
.	.	.	(8.eeL
.	.	.	16ccJk)
=	=	=	=
2T	2I6	(8.cL	8gg
.	.	.	4gg
.	.	16GJk)	.
.	.	(8.eL	.
.	.	.	8gg
.	.	16cJk)	.
=	=	=	=
2T	2IV	(8.FL	8cc 8gg 8aa
.	.	.	4cc 4ff 4aa
.	.	16CJk)	.
.	.	(8.AL	.
.	.	.	8cc 8ff 8aa
.	.	16FJk)	.
=	=	=	=
2T	2I	(8.CL	8cc 8ff 8gg
.	.	.	4cc 4ee 4gg
.	.	16GGJk)	.
.	.	(8.EL	.
.	.	.	8cc 8ee 8gg
.	.	16CJk)	.
=	=	=	=
4T	4IV6	8A 8c 8f	(16ggLL
.	.	.	16ffJ)
.	.	8r	8ffJ
4T	4V6	8B 8d 8g	16r
.	.	.	(32eeeLLL
.	.	.	32dddJJ)
.	.	8r	(32cccLL
.	.	.	32bb)
.	.	.	(32aa
.	.	.	32ggJJJ)
=	=	=	=
4T	4I	8c 8e 8g	(16.ffLL
.	.	.	32dd#Jk
.	.	8r	8eeJ)
4T	4I6	8E 8G 8c	16r
.	.	.	(32aaLLL
.	.	.	32ggJJ)
.	.	8r	(32ffLL
.	.	.	32ee)
.	.	.	(32dd
.	.	.	32ccJJJ)
=	=	=	=
*	*	*^	*
*	*	*	*	*
4P	4ii6	4d	4F	(16.bLL
.	.	.	.	32aJk)
.	.	.	.	(32ggLL
.	.	.	.	32ff
.	.	.	.	32ee
.	.	.	.	32ddJJJ
8D	8C4	8eL	4G	8ccL)
8D	8V7	8dJ	.	8b'J
*	*	*v	*v	*
*	*	*	*
=	=	=	=
2T	2I	8cL	(4f 4g 4b 4dd
.	.	8GJ	.
.	.	8C	8e) 8g 8cc
.	.	8r	8r
==	==	=	=
*-	*-	*-	*-
!!!COM: Mozart	
!!!OTL: 12 Variations on "Ah Vous dirais-je, Maman" for the Piano,	
!!!Variation: 12 a	
!!!COM: Mozart
!!!OTL: 12 Variations on "Ah Vous dirais-je, Maman" for the Piano,
!!!Variation: 12 a
**function	**harm	**kern	**kern
*M3/4	*M3/4	*M3/4	*M3/4
=-	=-	=-	=-
2.T	2.I	(16CCLL	4e 4g 4cc
.	.	16C	.
.	.	16BB	.
.	.	16CJJ	.
.	.	16DLL	4r
.	.	16C	.
.	.	16BB	.
.	.	16CJJ	.
.	.	16DLL	(8.ccL
.	.	16C	.
.	.	16BB	.
.	.	16CJJ)	32bLL
.	.	.	32ccJJJ
=	=	=	=
2.T	2.I6	(16EELL	4gg)
.	.	16C	.
.	.	16BB	.
.	.	16CJJ	.
.	.	16DLL	4r
.	.	16C	.
.	.	16BB	.
.	.	16CJJ	.
.	.	16DLL	(8.ccL
.	.	16C	.
.	.	16BB	.
.	.	16CJJ)	32bLL
.	.	.	32ccJJJ)
=	=	=	=
2.T	2.IV	(16FFLL	4cc 4gg 4aa
.	.	16C	.
.	.	16BB	.
.	.	16CJJ	.
.	.	16DLL	4cc 4ff 4aa
.	.	16C	.
.	.	16BB	.
.	.	16CJJ	.
.	.	16DLL	4cc 4ff 4aa
.	.	16C	.
.	.	16BB	.
.	.	16CJJ)	.
=	=	=	=
2T	2I	(16CCLL	4cc 4ee 4gg
.	.	16C	.
.	.	16BB	.
.	.	16CJJ	.
.	.	16DLL	4r
.	.	16C	.
.	.	16BB	.
.	.	16CJJ)	.
4T	4viio7/ii	(16CC#LL	(8.ggL
.	.	16C#	.
.	.	16BB	.
.	.	16C#JJ)	32ff#LL
.	.	.	32ggJJJ
=	=	=	=
2T	2V/V	(16DDLL	4ff#)
.	.	16D	.
.	.	16C#	.
.	.	16DJJ	.
.	.	16ELL	4r
.	.	16D	.
.	.	16C#	.
.	.	16DJJ)	.
4T	4viio7	(16BBBLL	(8.ffL
.	.	16BB	.
.	.	16AA	.
.	.	16BBJJ)	32eeLL
.	.	.	32ffJJJ
=	=	=	=
2T	2I	(16CCLL	4ee)
.	.	16C	.
.	.	16BB	.
.	.	16CJJ	.
.	.	16DLL	4r
.	.	16C	.
.	.	16BB	.
.	.	16CJJ)	.
4T	4vi	(16AAALL	(8.ccL
.	.	16AA	.
.	.	16GG#	.
.	.	16AAJJ)	32bLL
.	.	.	32ccJJJ
=	=	=	=
2P	2ii6	(16FFFLL	4dd
.	.	16FF	.
.	.	16EE	.
.	.	16FFJJ	.
.	.	16GGLL	4ff)
.	.	16FF	.
.	.	16EE	.
.	.	16FFJJ)	.
4D	4V	(16GGGLL	4d 4f 4b
.	.	16GG	.
.	.	16FF#	.
.	.	16GGJJ)	.
=	=	=	=
2.T	2.I	(16CCLL	4e 4g 4cc
.	.	16DD	.
.	.	16EE	.
.	.	16FFJJ	.
.	.	16GGLL	4r
.	.	16AA	.
.	.	16BB	.
.	.	16CJJ	.
.	.	4CC)	4r
=	=	=	=
*-	*-	*-	*-
!!!COM: Mozart	
!!!OTL: 12 Variations on "Ah Vous dirais-je, Maman" for the Piano,	
!!!Variation: 12 b	
!!!COM: Mozart
!!!OTL: 12 Variations on "Ah Vous dirais-je, Maman" for the Piano,
!!!Variation: 12 b
**function	**harm	**kern	**kern
*M3/4	*M3/4	*M3/4	*M3/4
=-	=-	=-	=-
2.D	2.I64	16GLL	(16aaLL
.	.	(16e	16gg
.	.	16d#	16ff#
.	.	16eJJ	16ggJJ
.	.	16d#LL	16ff#LL
.	.	16e	16gg
.	.	16d#	16ff#
.	.	16eJJ	16ggJJ
.	.	16d#LL	16ff#LL
.	.	16e	16gg
.	.	16d#	16ff#
.	.	16eJJ)	16ggJJ)
=	=	=	=
2.D	2.V7	16GLL	(16ggLL
.	.	(16d	16ff
.	.	16c#	16ee
.	.	16dJJ	16ffJJ
.	.	16c#LL	16eeLL
.	.	16d	16ff
.	.	16c#	16ee
.	.	16dJJ	16ffJJ
.	.	16c#LL	16eeLL
.	.	16d	16ff
.	.	16c#	16ee
.	.	16dJJ)	16ffJJ)
=	=	=	=
2.D	2.I64	16GLL	(16ffLL
.	.	(16c	16ee
.	.	16B	16dd#
.	.	16cJJ	16eeJJ
.	.	16BLL	16dd#LL
.	.	16c	16ee
.	.	16B	16dd#
.	.	16cJJ	16eeJJ
.	.	16BLL	16dd#LL
.	.	16c	16ee
.	.	16B	16dd#
.	.	16cJJ)	16eeJJ)
=	=	=	=
2.D	2.V7	16GLL	(16eeLL
.	.	(16f	16dd
.	.	16e	16cc#
.	.	16fJJ	16ddJJ
.	.	16eLL	16cc#LL
.	.	16f	16dd
.	.	16e	16cc#
.	.	16fJJ	16ddJJ
.	.	16eLL	16cc#LL
.	.	16f	16dd
.	.	16e	16cc#
.	.	16fJJ)	16ddJJ)
=	=	=	=
2.D	2.I64	16GLL	(16aaLL
.	.	(16e	16gg
.	.	16d#	16ff#
.	.	16eJJ	16ggJJ
.	.	16d#LL	16ff#LL
.	.	16e	16gg
.	.	16d#	16ff#
.	.	16eJJ	16ggJJ
.	.	16GLL	16eeeLL
.	.	16e	16gg
.	.	16G	16eee
.	.	16eJJ)	16ggJJ)
=	=	=	=
2.D	2.V7	16GLL	(16ggLL
.	.	(16d	16ff
.	.	16c#	16ee
.	.	16dJJ	16ffJJ
.	.	16c#LL	16eeLL
.	.	16d	16ff
.	.	16c#	16ee
.	.	16dJJ	16ffJJ
.	.	16GLL	16dddLL
.	.	16d	16ff
.	.	16G	16ddd
.	.	16dJJ)	16ffJJ)
=	=	=	=
2.D	2.I64	16GLL	(16ffLL
.	.	(16c	16ee
.	.	16B	16dd#
.	.	16cJJ	16eeJJ
.	.	16BLL	16dd#LL
.	.	16c	16ee
.	.	16B	16dd#
.	.	16cJJ	16eeJJ
.	.	16GLL	16cccLL
.	.	16c	16gg
.	.	16G	16ccc
.	.	16cJJ)	16ggJJ)
=	=	=	=
2.D	2.V7	16GLL	(16eeLL
.	.	(16f	16dd
.	.	16e	16cc#
.	.	16fJJ	16ddJJ
.	.	16eLL	16cc#LL
.	.	16f	16dd
.	.	16e	16cc#
.	.	16fJJ	16ddJJ
.	.	16GLL	16ggLL
.	.	16f	16b
.	.	16G	16gg
.	.	16fJJ)	16bJJ)
=	=	=	=
*-	*-	*-	*-
!!!!SEGMENT: 
!!!COM: Mozart
!!!OTL: 12 Variations on "Ah Vous dirais-je, Maman" for the Piano,
!!!Variation: 12 d?
**function	**harm	**kern	**kern
*M3/4	*M3/4	*M3/4	*M3/4
=	=	=-	=-
2T	2I6	(16CLL	4e 4g 4cc
.	.	16c	.
.	.	16B	.
.	.	16cJJ	.
.	.	16dLL	4r
.	.	16c	.
.	.	16B	.
.	.	16cJJ	.
4T	4i6	16dLL	(8.ccL
.	.	16c	.
.	.	16B	.
.	.	16cJJ)	32bLL
.	.	.	32ccJJJ
=	=	=	=
2T	2V/V	(16ELL	4gg)
.	.	16c	.
.	.	16B	.
.	.	16cJJ	.
.	.	16dLL	4r
.	.	16c	.
.	.	16B	.
.	.	16cJJ	.
4T	4viio7	16dLL	(8.ccL
.	.	16c	.
.	.	16B	.
.	.	16cJJ)	32bLL
.	.	.	32ccJJJ)
=	=	=	=
2T	2I	(16FLL	4cc 4gg 4aa
.	.	16c	.
.	.	16B	.
.	.	16cJJ	.
.	.	16dLL	4cc 4ff 4aa
.	.	16c	.
.	.	16B	.
.	.	16cJJ	.
4T	4vi	16dLL	4cc 4ff 4aa
.	.	16c	.
.	.	16B	.
.	.	16cJJ)	.
=	=	=	=
2P	2ii6	(16CLL	4cc 4ee 4gg
.	.	16c	.
.	.	16B	.
.	.	16cJJ	.
.	.	16dLL	4r
.	.	16c	.
.	.	16B	.
.	.	16cJJ)	.
4D	4V7	(16C#LL	(8.ggL
.	.	16c#	.
.	.	16B	.
.	.	16c#JJ)	32ff#LL
.	.	.	32ggJJJ
=	=	=	=
2.T	2.I	(16DLL	4ff#)
.	.	16d	.
.	.	16c#	.
.	.	16dJJ	.
.	.	16eLL	4r
.	.	16d	.
.	.	16c#	.
.	.	16dJJ)	.
.	.	(16BBLL	(8.ffL
.	.	16B	.
.	.	16A	.
.	.	16BJJ)	32eeLL
.	.	.	32ffJJJ
=	=	=	=
2.T	2.V	(16CLL	4ee)
.	.	16c	.
.	.	16B	.
.	.	16cJJ	.
.	.	16dLL	4r
.	.	16c	.
.	.	16B	.
.	.	16cJJ)	.
.	.	(16AALL	(8.ccL
.	.	16A	.
.	.	16G#	.
.	.	16AJJ)	32bLL
.	.	.	32ccJJJ
=	=	=	=
2.T	2.I	(16FFLL	4dd
.	.	16F	.
.	.	16E	.
.	.	16FJJ	.
.	.	16GLL	4ff)
.	.	16F	.
.	.	16E	.
.	.	16FJJ)	.
.	.	(16GGLL	4d 4f 4b
.	.	16G	.
.	.	16F#	.
.	.	16GJJ)	.
=	=	=	=
2.T	2.V	(16CLL	4e 4g 4cc
.	.	16D	.
.	.	16E	.
.	.	16FJJ	.
.	.	16GLL	4r
.	.	16A	.
.	.	16B	.
.	.	16cJJ	.
.	.	4C)	4r
=	=	=	=
*-	*-	*-	*-
